X: 316
T: Xi jindan
%%abc-version 2.0
%%abcx-abcm2ps-target-version 5.9.1 (29 Sep 2008)
%%abc-creator hum2abc beta
%%abcx-conversion-date 2013/10/02 07:52:30
%%abc-edited-by Helmut Schaffrath
%%humdrum-veritas 3745919409
%%humdrum-veritas-data 3592794246
%%continueall 1
%%barnumbers 0
L: 1/8
M: 2/4
K: G
d d e d [I:setbarnb 1]| 
A2z2 | 
d d e d | 
A2z2 | 
B> BB2 | 
A B A F | 
d D F E | 
D3E | 
A B A G | 
E E G E | 
D4 |]  



